X: 25192
T: Malarky
R: reel
M: 4/4
K: Eminor
EFGA B2B2|^A2^A2 B2BG|EFGA B2Bc|BAGF E2ED|
EFGA B2GB|^dcBc BAGF|EFGA B2Bc|BAGF E2EA||
K: Bmin
F2FB Bc~d2|Bc~d2 fedc|B2F2 Bc~d2|fedc B2B2|
F2FB Bc~d2|Bc~d2 f2df|bfda ecA2|dcBA B2BF||
K: Emin
|:GF (3EFE B,ECE|EFGA BAGF|GF (3EFE CEB,E|1 EFGF E2EF:|2 EFGF E2ED||

